
TO DIRECTORYSMOKETEST

   MKDIR "mytestdir

   ; the directory should be empty
   SIMPLEREPORTTEST [FILES]       []
   SIMPLEREPORTTEST [DIRECTORIES] [.. .]
   DIR

   OPENWRITE "file1.txt
   CLOSE     "file1.txt
   SIMPLEREPORTTEST [FILES]       [file1.txt]
   SIMPLEREPORTTEST [DIRECTORIES] [.. .]

   OPENWRITE "file2.txt
   CLOSE     "file2.txt
   SIMPLEREPORTTEST [FILES]       [file2.txt file1.txt]
   SIMPLEREPORTTEST [DIRECTORIES] [.. .]

   MKDIR "dir1
   POPDIR
   SIMPLEREPORTTEST [FILES]       [file2.txt file1.txt]
   SIMPLEREPORTTEST [DIRECTORIES] [dir1 .. .]

   MKDIR "dir2
   POPDIR
   SIMPLEREPORTTEST [FILES]       [file2.txt file1.txt]
   SIMPLEREPORTTEST [DIRECTORIES] [dir2 dir1 .. .]

   RMDIR "dir2
   SIMPLEREPORTTEST [FILES]       [file2.txt file1.txt]
   SIMPLEREPORTTEST [DIRECTORIES] [dir1 .. .]

   ERASEFILE "file1.txt
   SIMPLEREPORTTEST [FILES]       [file2.txt]
   SIMPLEREPORTTEST [DIRECTORIES] [dir1 .. .]

   ERASEFILE "file2.txt
   RMDIR     "dir1
   SIMPLEREPORTTEST [FILES]       []
   SIMPLEREPORTTEST [DIRECTORIES] [.. .]

   CHDIR     "..
   RMDIR     "mytestdir

   ; make sure it really got removed
   SIMPLEREPORTTEST [MEMBERP "mytestdir DIRECTORIES] "false
END

TO MKDIRTEST

  ; bad input tests
  RUNBADINPUTTEST [(MKDIR)]
  RUNBADINPUTTEST [(MKDIR "too "many)]

  ; MKDIR a very long directory name (regression test for bug #1343397)
  localmake "longdirname "||
  repeat 5000 [ make "longdirname word :longdirname "A ]
  MKDIR :longdirname

END

TO RMDIRTEST

  ; bad input tests
  RUNBADINPUTTEST [(RMDIR)]
  RUNBADINPUTTEST [RMDIR "too "many)]
  RUNBADINPUTTEST [RMDIR "doesnotexist)]

  ; RMDIR a very long directory name (regression test for bug #1343397)
  localmake "longdirname "||
  repeat 5000 [ make "longdirname word :longdirname "A ]
  RMDIR :longdirname

END

TO CHDIRTEST

  ; bad input tests
  RUNBADINPUTTEST [(CHDIR)]
  RUNBADINPUTTEST [CHDIR "too "many)]
  RUNBADINPUTTEST [CHDIR "doesnotexist)]

  ; CHDIR a very long directory name (regression test for bug #1343397)
  localmake "longdirname "||
  repeat 5000 [ make "longdirname word :longdirname "A ]
  CHDIR :longdirname

END


TO DIRECTORYTEST

   DIRECTORYSMOKETEST

   MKDIRTEST
   RMDIRTEST
   CHDIRTEST
END
