
TO SETRANDOMORIENTATION
  PENUP
  RIGHT RANDOM 90
  UP    RANDOM 90
  LEFT  RANDOM 180

  SETXYZ RANDOM 100 RANDOM 100 RANDOM 100
  PENDOWN
END

TO ORIENTATIONTEST

  PERSPECTIVE

  SETRANDOMORIENTATION
  SETORIENTATION [0 0 0]
  SIMPLEREPORTTEST [ORIENTATION] [0 0 0]

  SETRANDOMORIENTATION
  SETORIENTATION [1 2 3]
  SIMPLEREPORTTEST [ORIENTATION] [1 2 3]

  SETRANDOMORIENTATION
  SETORIENTATION [3 2 1]
  SIMPLEREPORTTEST [ORIENTATION] [3 2 1]

  SETRANDOMORIENTATION
  SETORIENTATION [105 0 0]
  SIMPLEREPORTTEST [ORIENTATION] [105 0 0]

  SETRANDOMORIENTATION
  SETORIENTATION [0 105 0]
  SIMPLEREPORTTEST [ORIENTATION] [180 75 180]

  SETRANDOMORIENTATION
  SETORIENTATION [0 0 105]
  SIMPLEREPORTTEST [ORIENTATION] [360 0 0]

  SETRANDOMORIENTATION
  SETORIENTATION [0 -90 0]
  SIMPLEREPORTTEST [ORIENTATION] [0 270 0]

  SETRANDOMORIENTATION
  SETORIENTATION [0 -105 0]
  SIMPLEREPORTTEST [ORIENTATION] [0 -105 0]

  ; bad input
  RUNBADINPUTTEST [(SETORIENTATION)]
  RUNBADINPUTTEST [(SETORIENTATION 0)]
  RUNBADINPUTTEST [(SETORIENTATION 0 0)]
  RUNBADINPUTTEST [(SETORIENTATION 0 0 0)]
  RUNBADINPUTTEST [(SETORIENTATION [0])]
  RUNBADINPUTTEST [(SETORIENTATION [0 0])]
  RUNBADINPUTTEST [(SETORIENTATION [a b c])]
  RUNBADINPUTTEST [(SETORIENTATION [0 0 0 0])]
  RUNBADINPUTTEST [(SETORIENTATION {0 0 0})]
  RUNBADINPUTTEST [(SETORIENTATION [0 0 0] "toomany)]

  RUNBADINPUTTEST [(ORIENTATION "toomany)]

  WINDOW
END

